X:1
T:Title
%%score { 1 | ( 2 3 ) }
L:1/8
Q:1/4=126
M:3/4
K:E
V:1 treble nm="Grand Piano"
V:2 bass 
V:3 bass 
V:1
 B4 G2 | c4 B2 | E4 [CEA]2 | [EG]2 [DF]4 | G4 E2 | B4 ^A2 | [DB]6 | B4 G2 | c4 B2 | E4 [CFA]2 | %10
w: Thoro~Harris *||||||||||
 [B,EG]2 [B,DF]4 | [B,EG]4 [B,EB]2 | [CEF]4 .[B,DF]2 |[M:7/4][K:bass] [E,G,E]6 z2 z2 z4 | %14
w: ||||
[M:8/4][K:treble] [CEA]8 [B,EG]8 |] %15
w: |
V:2
 [E,G,E]4 [E,E]2 | [E,A,E]4 [E,G,E]2 | [C,G,]4 A,,2 | [B,,B,]2 [B,,B,]4 | [E,B,E]4 [G,B,]2 | %5
 [F,B,D]4 [F,C]2 | [B,,F,]6 | [E,G,E]4 [E,B,E]2 | [E,A,E]4 [E,G,E]2 | [C,G,]4 A,,2 | B,,2 B,,4 | %11
 E,4 G,,2 | A,,4 z A, |[M:7/4] E,,6 z2 z2 z4 |[M:8/4] A,,8 E,8 |] %15
V:3
 x6 | x6 | x6 | x6 | x6 | x6 | x6 | x6 | x6 | x6 | x6 | x6 | z2 z2 B,,2 |[M:7/4] x14 | %14
[M:8/4] x16 |] %15

